web/ui/src/components/workflow/workflow-viewer/svgs/tool/rotate.svg

<svg height="24" viewBox="0 0 24 24" width="24" xmlns="http://www.w3.org/2000/svg"><g fill="none"><path d="m0 0h24v24h-24z" fill="#000" opacity="0"/><path d="m19.16625 7.69476563h-9.7378125c-1.39875 0-2.536875 1.13789062-2.536875 2.53687497v9.736875c0 1.39875 1.13789063 2.536875 2.536875 2.536875h9.7375781c1.3980469 0 2.5359375-1.1378906 2.5359375-2.536875v-9.736875c0-1.39898435-1.1378906-2.53687497-2.5357031-2.53687497zm.7122656 12.27374997c0 .3935156-.3196875.7132031-.7122656.7132031h-9.7378125c-.39351562 0-.71320312-.3196875-.71320312-.7132031v-9.736875c0-.3935156.3196875-.7132031.71320312-.7132031h9.7375781c.3925782 0 .7122657.3196875.7122657.7132031v9.736875zm-14.04468747-11.33343748c-.42820313-.2653125-.99023438-.13265625-1.25554688.29554688l-.425625.68742187c-.02039062-.19851562-.03117187-.40078125-.03117187-.60375 0-3.14062499 2.555625-5.69601562 5.69695312-5.69601562 1.04625 0 2.0692969.2859375 2.9571094.82710937.4310156.26085938.991875.1246875 1.2536719-.30445312.2617968-.43007812.125625-.9909375-.3044532-1.25367188-1.1744531-.71507812-2.5251562-1.09265625-3.9063281-1.09265625-4.14679687 0-7.520625 3.37289063-7.520625 7.5196875 0 1.12828123.24398438 2.21273433.72398438 3.22335933.1434375.3009376.43992187.5003907.77296875.5182032.016875.0009375.03375.001875.05085937.001875.31586657 0 .60925432-.1634043.77554688-.4319531l1.50820312-2.4351563c.26460938-.4284375.13265625-.99023438-.29554687-1.25554688z" fill="#526579" stroke="#fff" stroke-width=".6"/></g></svg>

<?xml version="1.0" encoding="UTF-8"?>
<svg width="24px" height="24px" viewBox="0 0 24 24" version="1.1" xmlns="http://www.w3.org/2000/svg" xmlns:xlink="http://www.w3.org/1999/xlink">
    <title>编组 15</title>
    <g id="页面-1" stroke="none" stroke-width="1" fill="none" fill-rule="evenodd">
        <g id="建木自动化-详情4备份-2" transform="translate(-1385.000000, -434.000000)" fill-rule="nonzero">
            <g id="编组-15" transform="translate(1385.000000, 434.000000)">
                <rect id="矩形" fill="#000000" opacity="0" x="0" y="0" width="24" height="24"></rect>
                <path d="M19.16625,7.69476563 L9.4284375,7.69476563 C8.0296875,7.69476563 6.8915625,8.83265625 6.8915625,10.2316406 L6.8915625,19.9685156 C6.8915625,21.3672656 8.02945313,22.5053906 9.4284375,22.5053906 L19.1660156,22.5053906 C20.5640625,22.5053906 21.7019531,21.3675 21.7019531,19.9685156 L21.7019531,10.2316406 C21.7019531,8.83265625 20.5640625,7.69476563 19.16625,7.69476563 Z M19.8785156,19.9685156 C19.8785156,20.3620312 19.5588281,20.6817187 19.16625,20.6817187 L9.4284375,20.6817187 C9.03492188,20.6817187 8.71523438,20.3620312 8.71523438,19.9685156 L8.71523438,10.2316406 C8.71523438,9.838125 9.03492188,9.5184375 9.4284375,9.5184375 L19.1660156,9.5184375 C19.5585938,9.5184375 19.8782813,9.838125 19.8782813,10.2316406 L19.8782813,19.9685156 L19.8785156,19.9685156 Z M5.83382813,8.63507812 C5.405625,8.36976562 4.84359375,8.50242187 4.57828125,8.930625 L4.15265625,9.61804687 C4.13226563,9.41953125 4.12148438,9.21726562 4.12148438,9.01429687 C4.12148438,5.87367188 6.67710938,3.31828125 9.8184375,3.31828125 C10.8646875,3.31828125 11.8877344,3.60421875 12.7755469,4.14539062 C13.2065625,4.40625 13.7674219,4.27007812 14.0292188,3.8409375 C14.2910156,3.41085938 14.1548438,2.85 13.7247656,2.58726562 C12.5503125,1.8721875 11.1996094,1.49460937 9.8184375,1.49460937 C5.67164063,1.49460937 2.2978125,4.8675 2.2978125,9.01429687 C2.2978125,10.1425781 2.54179688,11.2270312 3.02179688,12.2376562 C3.16523438,12.5385938 3.46171875,12.7380469 3.79476563,12.7558594 C3.81164063,12.7567969 3.82851563,12.7577344 3.845625,12.7577344 C4.16149157,12.7577344 4.45487932,12.5943301 4.62117188,12.3257813 L6.129375,9.890625 C6.39398438,9.4621875 6.26203125,8.90039062 5.83382813,8.63507812 Z" id="形状" stroke="#FFFFFF" stroke-width="0.6" fill="#526579"></path>
            </g>
        </g>
    </g>
</svg>
